img/header/logo.svg

<?xml version="1.0" encoding="UTF-8"?>
<svg width="1700px" height="30px" viewBox="0 0 1700 30" version="1.1" xmlns="http://www.w3.org/2000/svg" xmlns:xlink="http://www.w3.org/1999/xlink">
    <!-- Generator: Sketch 46.2 (44496) - http://www.bohemiancoding.com/sketch -->
    <title>logo</title>
    <desc>Created with Sketch.</desc>
    <defs></defs>
    <g id="Page-1" stroke="none" stroke-width="1" fill="none" fill-rule="evenodd">
        <g id="logo" fill-rule="nonzero">
            <g id="Group">
                <path d="M1700,29.9214734 C1678.86628,29.9607367 81.9527331,29.9607367 60.8190113,30 C58.8977639,30 58.2704178,28.6650475 58.2704178,27.2908316 C58.1919995,19.1240631 58.1919995,10.9572946 58.2704178,2.79052607 C58.2704178,1.49483683 58.5840908,-0.0756955738 60.4661291,0.00283104648 C62.2697492,0.0813576668 62.6226314,1.41631021 62.6226314,2.94757931 C62.6226314,9.8971852 62.6618405,16.8075278 62.5834222,23.7571337 C62.5834222,25.1706129 62.8970953,25.6417726 64.4262514,25.6417726 C83.8347714,25.563246 1678.9447,25.563246 1698.35322,25.563246 C1698.90214,25.563246 1699.52949,25.7595625 1700,25.2491395 C1700,26.7804086 1700,28.350941 1700,29.9214734 Z" id="Shape" fill="#FE7E1D"></path>
                <path d="M6.79285388,24.2217299 C5.09875508,24.1443722 3.20766804,23.9896567 1.47417159,23.0613642 C0.213446893,22.3651447 -0.33812016,21.3594945 0.213446893,20.0057345 C0.765013947,18.6519744 1.9075457,18.5746167 3.16827039,18.9227264 C4.50779038,19.2708362 5.76851507,19.8896979 7.18683035,19.851019 C8.64454328,19.8123402 9.78707503,19.309515 10.0628586,17.7623607 C10.3386421,16.2538853 9.23550798,15.7510602 8.05357858,15.3255927 C6.75345624,14.9001253 5.41393625,14.5520156 4.11381391,14.0878693 C1.98634099,13.3142922 0.292242187,12.0378899 0.0952539534,9.60112187 C-0.141131927,6.89360187 0.84380924,4.72758587 3.16827039,3.29646816 C6.00490095,1.55591958 8.9991221,1.67195616 11.9933432,3.02571616 C13.3328632,3.64457787 13.8450326,4.68890701 13.2934656,6.04266702 C12.7418985,7.35774816 11.6387644,7.55114244 10.3386421,7.08699616 C9.23550798,6.70020759 8.09297622,6.35209787 6.87164918,6.54549216 C5.9655033,6.70020759 5.25634567,7.16435387 5.13815273,8.1313253 C5.01995979,9.05961787 5.61092449,9.56244302 6.39887742,9.83319502 C7.38381858,10.1813047 8.36875975,10.5294144 9.35370092,10.8388453 C13.8844303,12.2312842 15.6179267,14.6293733 14.9875644,18.5746167 C14.3965997,22.017035 11.244788,24.2604087 6.79285388,24.2217299 Z" id="Shape" fill="#3197D9"></path>
                <path d="M56.4980991,16.5133314 C56.4980991,18.1682908 56.5753284,19.8617377 56.4980991,21.5166972 C56.3436403,23.748968 54.6059799,24.5956915 52.9455488,23.1331692 C52.1346406,22.4403955 51.7484938,22.940732 51.130659,23.210144 C48.8523931,24.2108172 46.6127418,24.1338423 44.5275493,22.7867823 C42.8285035,21.7091343 42.4423567,19.9772 42.5582008,18.0528285 C42.7126595,15.8205576 44.2572465,14.7429096 46.110751,13.9346736 C47.6167234,13.2803873 49.2385398,13.2803873 50.8217416,13.1264376 C51.4009617,13.0494627 52.2118699,13.164925 52.1732553,12.1642519 C52.1346406,11.279041 51.5554204,11.0866039 50.7445122,10.9711416 C49.5088426,10.7787044 48.4662463,11.1635787 47.4622647,11.817865 C46.4968978,12.4336639 45.4543015,12.5491262 44.7592373,11.5099656 C44.0641732,10.470805 44.5275493,9.58559413 45.4156868,8.81584555 C47.5781087,6.92996152 52.3663286,6.66054952 54.6832092,8.31550897 C55.9188789,9.20071984 56.4594844,10.470805 56.4980991,11.9718147 C56.4980991,13.434337 56.4980991,14.9738342 56.4980991,16.5133314 Z M50.4742095,16.3593817 C49.4316132,16.3593817 48.3890169,16.3978691 47.5008794,17.0521554 C46.5741271,17.7449291 46.1879804,18.6686274 47.1533473,19.6308131 C48.3117876,20.785436 51.130659,20.2850994 51.9029525,18.8610645 C52.8297048,17.1291302 52.3663286,16.3208942 50.4742095,16.3593817 Z" id="Shape" fill="#3197D9"></path>
                <path d="M72.2222372,16.6350255 C72.2222372,15.1468398 72.1829544,13.6194914 72.2222372,12.1313057 C72.26152,11.1522362 72.693631,10.3298178 73.6757015,10.0165156 C74.5399236,9.70321332 75.4434285,9.82070166 75.9541051,10.6431201 C76.4647818,11.4263757 77.0147413,11.1130734 77.6039836,10.8780967 C81.885811,9.1157716 86.2854869,9.1157716 90.7244456,10.1340039 C93.2385461,10.7214456 94.8491418,12.5229335 95.0455559,15.0685143 C95.2026871,17.0266533 95.1634043,18.9847924 95.0848387,20.9429314 C95.0455559,22.3527915 94.3777479,23.331861 92.8064351,23.331861 C91.3136879,23.331861 90.8030113,22.274466 90.7244456,21.021257 C90.64588,19.8072108 90.7244456,18.5540018 90.6851628,17.3007928 C90.64588,15.1076771 89.6638095,13.8936309 87.5032543,13.5020031 C85.1070023,13.0712125 82.6714674,12.9537241 80.2752154,13.5020031 C77.0540241,14.2460959 76.3862162,15.4601421 76.6219131,17.8490717 C76.7397615,19.0239551 76.6611959,20.1988386 76.5826303,21.373722 C76.4647818,22.5486054 75.7184082,23.2926983 74.5006408,23.331861 C73.2043077,23.3710238 72.3793685,22.626931 72.3008028,21.3345592 C72.2222372,19.768048 72.26152,18.2015368 72.26152,16.6350255 C72.26152,16.6350255 72.2222372,16.6350255 72.2222372,16.6350255 Z" id="Shape" fill="#FE7E1D"></path>
                <path d="M23.1711064,23.8885713 C18.831922,23.8115959 15.6346282,20.2322412 15.6726912,15.4982558 C15.7107542,10.8412459 19.1364261,7.14642805 23.3614215,7.22340342 C27.5102907,7.30037879 30.8598366,11.1491474 30.7837105,15.7676696 C30.7075845,20.4631673 27.4341647,23.927059 23.1711064,23.8885713 Z M19.9357496,15.5367435 C19.8976866,17.92298 21.3060183,19.8088766 23.0949803,19.885852 C24.9981314,19.9243397 26.4445262,18.1923938 26.5206522,15.8061573 C26.5967782,13.150507 25.1884465,11.3030981 23.1330433,11.3415858 C21.2298923,11.3415858 19.9738126,12.9965563 19.9357496,15.5367435 Z" id="Shape" fill="#3197D9"></path>
                <path d="M34.6794452,16.9823442 C34.6794452,16.0124411 34.7572525,15.0425381 34.6794452,14.072635 C34.601638,12.9863436 35.3408067,11.5120909 33.1233006,11.4732948 C32.5008427,11.4732948 31.8005776,10.3482073 31.9172885,9.26191583 C32.0339993,8.40840114 32.4619391,7.67127481 33.278915,7.59368256 C34.7183488,7.51609032 34.6405416,6.6237795 34.7572525,5.61508032 C35.107385,2.89935175 37.2859875,1.30871072 40.0092407,1.73546807 C41.0596383,1.89065256 42.0711323,2.20102154 42.1489396,3.55888583 C42.2267468,4.83915787 41.6431925,5.49869195 40.3593732,5.5762842 C39.6202045,5.61508032 39.1144575,5.96424542 39.1144575,6.77896399 C39.1533611,7.67127481 39.8925298,7.4772942 40.4371804,7.51609032 C41.7209998,7.59368256 42.5768793,8.09803216 42.5379757,9.49469257 C42.4990721,10.891353 41.5653853,11.3957026 40.3204696,11.3569064 C39.2311683,11.3181103 39.0366502,11.861256 39.0366502,12.792363 C39.0755539,15.5856838 39.0366502,18.3402085 39.0366502,21.1335293 C39.0366502,22.607782 38.6476141,23.9268501 36.8191441,23.888054 C34.9906742,23.8492579 34.6794452,22.5301897 34.6794452,21.0559371 C34.6794452,19.6980728 34.6405416,18.3402085 34.6794452,16.9823442 C34.6794452,16.9823442 34.6794452,16.9823442 34.6794452,16.9823442 Z" id="Shape" fill="#3197D9"></path>
                <path d="M69.9402406,15.4559732 C69.9402406,17.3379734 70.0187316,19.2591819 69.9009951,21.1411821 C69.822504,22.5526823 69.4300488,23.9641825 67.5855095,23.8857658 C65.8587067,23.8465575 65.5054971,22.5918906 65.5054971,21.1411821 C65.5054971,17.3379734 65.4662515,13.5739729 65.5054971,9.77076418 C65.5054971,8.51609737 65.5447426,7.22222222 67.3892819,7.22222222 C69.1945757,7.22222222 69.8617495,8.12401399 69.9009951,9.73155584 C69.9794861,11.6527644 69.9402406,13.5739729 69.9402406,15.4559732 C69.9402406,15.4559732 69.9402406,15.4559732 69.9402406,15.4559732 Z" id="Shape" fill="#FE7E1D"></path>
                <path d="M101.292561,15.65223 C101.292561,17.585718 101.333104,19.519206 101.292561,21.452694 C101.252017,22.8448054 100.643863,23.8888889 99.0221191,23.8888889 C97.4003749,23.8888889 96.8327645,22.8448054 96.8327645,21.452694 C96.8327645,17.5083784 96.8327645,13.6027327 96.8327645,9.65841712 C96.8327645,8.26630575 97.4409185,7.22222222 99.0626627,7.22222222 C100.684407,7.22222222 101.252017,8.30497551 101.292561,9.69708688 C101.333104,11.6692447 101.292561,13.6800722 101.292561,15.65223 C101.292561,15.65223 101.292561,15.65223 101.292561,15.65223 Z" id="Shape" fill="#3197D9"></path>
                <path d="M99.3524299,6.66666667 C97.792841,6.53225806 96.684712,5.63620072 96.8488793,4.02329749 C96.9720047,2.58960573 97.5876319,1.11111111 99.3524299,1.11111111 C100.747852,1.11111111 102.020148,2.54480287 101.85598,4.06810036 C101.650771,5.63620072 100.870977,6.6218638 99.3524299,6.66666667 Z" id="Shape" fill="#3197D9"></path>
                <path d="M70.5255973,2.48879302 C70.4843059,4.55600601 69.3694399,5.67949133 67.8416606,5.54467309 C66.3138813,5.40985485 65.4880546,4.42118777 65.4880546,2.71349008 C65.4880546,1.09567122 66.6855033,-0.162632338 68.1719913,0.0171253131 C69.6171879,0.241822377 70.4843059,1.14061063 70.5255973,2.48879302 Z" id="Shape" fill="#3197D9"></path>
            </g>
        </g>
    </g>
</svg>

<svg width="1700" height="30" viewBox="0 0 1700 30" xmlns="http://www.w3.org/2000/svg"><title>logo</title><desc>Created with Sketch.</desc><g fill-rule="nonzero" fill="none"><path d="M1700 29.921c-21.134.039-1618.047.039-1639.181.079-1.921 0-2.549-1.335-2.549-2.709-.078-8.167-.078-16.334 0-24.5 0-1.296.314-2.866 2.196-2.788 1.804.079 2.157 1.413 2.157 2.945 0 6.95.039 13.86-.039 20.81 0 1.413.314 1.885 1.843 1.885 19.409-.079 1614.518-.079 1633.927-.079.549 0 1.176.196 1.647-.314v4.672z" id="Shape" fill="#FE7E1D"/><path d="M6.793 24.222c-1.694-.077-3.585-.232-5.319-1.16-1.261-.696-1.812-1.702-1.261-3.056.552-1.354 1.694-1.431 2.955-1.083 1.34.348 2.6.967 4.019.928 1.458-.039 2.6-.542 2.876-2.089.276-1.508-.827-2.011-2.009-2.437-1.3-.425-2.64-.774-3.94-1.238-2.127-.774-3.822-2.05-4.019-4.487-.236-2.708.749-4.874 3.073-6.305 2.837-1.741 5.831-1.625 8.825-.271 1.34.619 1.852 1.663 1.3 3.017-.552 1.315-1.655 1.508-2.955 1.044-1.103-.387-2.246-.735-3.467-.542-.906.155-1.615.619-1.733 1.586-.118.928.473 1.431 1.261 1.702.985.348 1.97.696 2.955 1.006 4.531 1.392 6.264 3.791 5.634 7.736-.591 3.442-3.743 5.686-8.195 5.647zM56.498 16.513c0 1.655.077 3.348 0 5.003-.154 2.232-1.892 3.079-3.553 1.616-.811-.693-1.197-.192-1.815.077-2.278 1.001-4.518.924-6.603-.423-1.699-1.078-2.085-2.81-1.969-4.734.154-2.232 1.699-3.31 3.553-4.118 1.506-.654 3.128-.654 4.711-.808.579-.077 1.39.038 1.352-.962-.039-.885-.618-1.078-1.429-1.193-1.236-.192-2.278.192-3.282.847-.965.616-2.008.731-2.703-.308-.695-1.039-.232-1.924.656-2.694 2.162-1.886 6.951-2.155 9.268-.5 1.236.885 1.776 2.155 1.815 3.656v4.542zm-6.024-.154c-1.043 0-2.085.038-2.973.693-.927.693-1.313 1.616-.348 2.579 1.158 1.155 3.977.654 4.75-.77.927-1.732.463-2.54-1.429-2.502z" id="Shape" fill="#3197D9"/><path d="M72.222 16.635c0-1.488-.039-3.016 0-4.504.039-.979.471-1.801 1.453-2.115.864-.313 1.768-.196 2.278.627.511.783 1.061.47 1.65.235 4.282-1.762 8.682-1.762 13.12-.744 2.514.587 4.125 2.389 4.321 4.935.157 1.958.118 3.916.039 5.874-.039 1.41-.707 2.389-2.278 2.389-1.493 0-2.003-1.057-2.082-2.311-.079-1.214 0-2.467-.039-3.72-.039-2.193-1.021-3.407-3.182-3.799-2.396-.431-4.832-.548-7.228 0-3.221.744-3.889 1.958-3.653 4.347.118 1.175.039 2.35-.039 3.525-.118 1.175-.864 1.919-2.082 1.958-1.296.039-2.121-.705-2.2-1.997-.079-1.567-.039-3.133-.039-4.7h-.039z" id="Shape" fill="#FE7E1D"/><path d="M23.171 23.889c-4.339-.077-7.536-3.656-7.498-8.39.038-4.657 3.464-8.352 7.689-8.275 4.149.077 7.498 3.926 7.422 8.544-.076 4.695-3.35 8.159-7.613 8.121zm-3.235-8.352c-.038 2.386 1.37 4.272 3.159 4.349 1.903.038 3.35-1.693 3.426-4.08.076-2.656-1.332-4.503-3.388-4.465-1.903 0-3.159 1.655-3.197 4.195zM34.679 16.982c0-.97.078-1.94 0-2.91-.078-1.086.661-2.561-1.556-2.599-.622 0-1.323-1.125-1.206-2.211.117-.854.545-1.591 1.362-1.668 1.439-.078 1.362-.97 1.478-1.979.35-2.716 2.529-4.306 5.252-3.88 1.05.155 2.062.466 2.14 1.823.078 1.28-.506 1.94-1.79 2.017-.739.039-1.245.388-1.245 1.203.039.892.778.698 1.323.737 1.284.078 2.14.582 2.101 1.979-.039 1.397-.973 1.901-2.218 1.862-1.089-.039-1.284.504-1.284 1.435.039 2.793 0 5.548 0 8.341 0 1.474-.389 2.793-2.218 2.755-1.828-.039-2.14-1.358-2.14-2.832 0-1.358-.039-2.716 0-4.074z" id="Shape" fill="#3197D9"/><path d="M69.94 15.456c0 1.882.078 3.803-.039 5.685-.078 1.412-.471 2.823-2.315 2.745-1.727-.039-2.08-1.294-2.08-2.745 0-3.803-.039-7.567 0-11.37 0-1.255.039-2.549 1.884-2.549 1.805 0 2.472.902 2.512 2.509.078 1.921.039 3.842.039 5.724z" id="Shape" fill="#FE7E1D"/><path d="M101.293 15.652c0 1.933.041 3.867 0 5.8-.041 1.392-.649 2.436-2.27 2.436-1.622 0-2.189-1.044-2.189-2.436v-11.794c0-1.392.608-2.436 2.23-2.436 1.622 0 2.189 1.083 2.23 2.475.041 1.972 0 3.983 0 5.955zM99.352 6.667c-1.56-.134-2.668-1.03-2.504-2.643.123-1.434.739-2.912 2.504-2.912 1.395 0 2.668 1.434 2.504 2.957-.205 1.568-.985 2.554-2.504 2.599zM70.526 2.489c-.041 2.067-1.156 3.191-2.684 3.056-1.528-.135-2.354-1.123-2.354-2.831 0-1.618 1.197-2.876 2.684-2.696 1.445.225 2.312 1.123 2.354 2.472z" fill="#3197D9"/></g></svg>
